symbolic/64x64/apps/kmymoney.svg

<svg xmlns="http://www.w3.org/2000/svg" width="64" height="64" version="1">
 <path style="opacity:.2" d="m32 5c-15.512 0-28 12.488-28 28s12.488 28 28 28 28-12.488 28-28-12.488-28-28-28z"/>
 <path style="fill:#ffc947" d="m32 4c-15.512 0-28 12.488-28 28s12.488 28 28 28 28-12.488 28-28-12.488-28-28-28z"/>
 <path style="opacity:.2" d="m32 9c13.369412 0 24 10.630588 24 24s-10.630588 24-24 24-24-10.630588-24-24 10.630588-24 24-24z"/>
 <path style="fill:#b38d32" d="m32 8.0000002c13.369412 0 24 10.6305878 24 23.9999998s-10.630588 24-24 24-24-10.630588-24-24 10.630588-23.9999998 24-23.9999998z"/>
 <path style="opacity:.2" d="m28 16.9994c-1.662 0-3 1.19064-3 2.667968v26.664064c0 1.477328 1.338 2.667968 3 2.667968s3-1.19064 3-2.667968v-6.527344l4.582032 7.9375c0.738664 1.279404 2.494258 1.6435 3.933592 0.8125 1.439328-0.831 2.00429-2.533092 1.265626-3.8125l-6.769532-11.726564 6.769532-11.722656c0.738664-1.279406 0.1737-2.977593-1.265626-3.808593-0.53975-0.311625-1.125584-0.454508-1.683592-0.445313-0.930016 0.01532-1.788336 0.454279-2.25 1.253907l-4.582032 7.937499v-6.5625c0-1.477328-1.338-2.667968-3-2.667968z"/>
 <path style="fill:#ffc947" d="m28 16c-1.662 0-3 1.19064-3 2.667969v26.664063c0 1.477328 1.338 2.667968 3 2.667968s3-1.19064 3-2.667968v-6.527344l4.582032 7.9375c0.738664 1.279404 2.494258 1.6435 3.933592 0.8125 1.439328-0.831 2.00429-2.533092 1.265626-3.8125l-6.769532-11.726564 6.769532-11.722656c0.738664-1.279405 0.1737-2.977593-1.265626-3.808593-0.53975-0.311625-1.125584-0.454508-1.683592-0.445313-0.930016 0.01532-1.788336 0.454279-2.25 1.253907l-4.582032 7.937499v-6.562499c0-1.477329-1.338-2.667969-3-2.667969z"/>
 <path style="opacity:.2;fill:#ffffff" d="m32 4c-15.512 0-28 12.488-28 28 0 0.11345 0.0112805 0.224113 0.0175781 0.335938 0.3515432-15.201757 12.6931499-27.335938 27.9824219-27.335938s27.630879 12.134181 27.982422 27.335938c0.006298-0.111825 0.017578-0.222488 0.017578-0.335938 0-15.512-12.488-28-28-28z"/>
</svg>

<svg xmlns="http://www.w3.org/2000/svg" width="64" height="64" version="1"><path style="opacity:.2" d="M32 5C16.488 5 4 17.488 4 33s12.488 28 28 28 28-12.488 28-28S47.512 5 32 5z"/><path style="fill:#ffc947" d="M32 4C16.488 4 4 16.488 4 32s12.488 28 28 28 28-12.488 28-28S47.512 4 32 4z"/><path style="opacity:.2" d="M32 9c13.37 0 24 10.63 24 24S45.37 57 32 57 8 46.37 8 33 18.63 9 32 9z"/><path style="fill:#b38d32" d="M32 8c13.37 0 24 10.63 24 24S45.37 56 32 56 8 45.37 8 32 18.63 8 32 8z"/><path style="opacity:.2" d="M28 17c-1.662 0-3 1.19-3 2.667v26.664C25 47.81 26.338 49 28 49s3-1.19 3-2.668v-6.527l4.582 7.938c.739 1.279 2.494 1.643 3.934.812 1.439-.83 2.004-2.533 1.265-3.812l-6.77-11.727 6.77-11.723c.739-1.279.174-2.977-1.265-3.808a3.268 3.268 0 0 0-1.684-.446c-.93.016-1.788.455-2.25 1.254L31 26.23v-6.563C31 18.19 29.662 17 28 17z"/><path style="fill:#ffc947" d="M28 16c-1.662 0-3 1.19-3 2.668v26.664C25 46.809 26.338 48 28 48s3-1.19 3-2.668v-6.527l4.582 7.937c.739 1.28 2.494 1.644 3.934.813 1.439-.831 2.004-2.533 1.265-3.813l-6.77-11.726 6.77-11.723c.739-1.28.174-2.978-1.265-3.809a3.268 3.268 0 0 0-1.684-.445c-.93.015-1.788.454-2.25 1.254L31 25.23v-6.562C31 17.191 29.662 16 28 16z"/><path style="opacity:.2;fill:#fff" d="M32 4C16.488 4 4 16.488 4 32c0 .113.011.224.018.336C4.369 17.134 16.71 5 32 5s27.63 12.134 27.982 27.336c.007-.112.018-.223.018-.336C60 16.488 47.512 4 32 4z"/></svg>
